files/resources/svgs/general/s-chevron-double-down.svg

<svg width="24" height="24" viewBox="0 0 24 24" fill="none" xmlns="http://www.w3.org/2000/svg">
<path fill-rule="evenodd" clip-rule="evenodd" d="M20.0303 4.71967C20.3232 5.01256 20.3232 5.48744 20.0303 5.78033L12.5303 13.2803C12.2374 13.5732 11.7626 13.5732 11.4697 13.2803L3.96967 5.78033C3.67678 5.48744 3.67678 5.01256 3.96967 4.71967C4.26256 4.42678 4.73744 4.42678 5.03033 4.71967L12 11.6893L18.9697 4.71967C19.2626 4.42678 19.7374 4.42678 20.0303 4.71967ZM20.0303 10.7197C20.3232 11.0126 20.3232 11.4874 20.0303 11.7803L12.5303 19.2803C12.2374 19.5732 11.7626 19.5732 11.4697 19.2803L3.96967 11.7803C3.67678 11.4874 3.67678 11.0126 3.96967 10.7197C4.26256 10.4268 4.73744 10.4268 5.03033 10.7197L12 17.6893L18.9697 10.7197C19.2626 10.4268 19.7374 10.4268 20.0303 10.7197Z" fill="#0F172A"/>
</svg>

<svg xmlns="http://www.w3.org/2000/svg" viewBox="0 0 24 24" fill="currentColor" aria-hidden="true">
  <path fill-rule="evenodd" d="M20.03 4.72a.75.75 0 010 1.06l-7.5 7.5a.75.75 0 01-1.06 0l-7.5-7.5a.75.75 0 011.06-1.06L12 11.69l6.97-6.97a.75.75 0 011.06 0zm0 6a.75.75 0 010 1.06l-7.5 7.5a.75.75 0 01-1.06 0l-7.5-7.5a.75.75 0 111.06-1.06L12 17.69l6.97-6.97a.75.75 0 011.06 0z" clip-rule="evenodd"/>
</svg>
